markets/SEI.svg

<svg width="42" height="42" viewBox="0 0 42 42" fill="none" xmlns="http://www.w3.org/2000/svg">
<circle cx="21" cy="21" r="21" fill="white"/>
<path fill-rule="evenodd" clip-rule="evenodd" d="M20.9447 42C27.1117 42 32.6595 39.3557 36.5102 35.1419L35.4857 34.0141C34.2176 32.6184 32.0559 32.4991 30.6405 33.7468L28.4547 35.6735C25.4812 38.2946 20.9615 38.1293 18.1894 35.298L16.8228 33.9022C15.5104 32.5617 13.3599 32.5151 11.9898 33.7973L7.98101 37.5489C11.5549 40.3377 16.0551 42 20.9447 42ZM38.4478 31.3519L38.9454 31.8997C40.8836 28.7222 42 24.9913 42 21C42 16.1604 40.3586 11.7032 37.6007 8.1519C37.088 8.28297 36.5981 8.53381 36.1749 8.90682L33.9893 10.8335C31.0158 13.4547 26.4961 13.2895 23.724 10.4582L22.3574 9.06231C21.0448 7.72188 18.8944 7.67515 17.5244 8.9573L11.9007 14.2202L9.16489 11.3285L14.7885 6.06553C17.7449 3.29878 22.3855 3.39962 25.2175 6.29215L26.5841 7.68804C27.8689 9.00008 29.9632 9.07664 31.3413 7.86194L33.5269 5.93528C33.8938 5.61194 34.2838 5.33116 34.691 5.09255C31.0023 1.91901 26.1981 0 20.9447 0C10.382 0 1.63599 7.7574 0.121356 17.8716C3.00364 16.2168 6.74608 16.6495 9.16701 19.1221L10.7476 20.7363C11.9761 21.9912 13.9579 22.1235 15.3441 21.0433L20.0295 17.3925C22.8417 15.2013 26.8229 15.3073 29.5132 17.645L35.8931 23.1889L33.2665 26.179L26.8865 20.6352C25.6398 19.5518 23.7948 19.5027 22.4917 20.5183L17.8062 24.1691C14.8149 26.4999 10.5384 26.2142 7.88737 23.5066L6.30682 21.8923C4.99439 20.5519 2.84391 20.5051 1.47388 21.7873L0 23.1665C0.455813 27.6021 2.29579 31.6288 5.08202 34.8098L9.25401 30.9054C12.2104 28.1387 16.8509 28.2394 19.6829 31.1321L21.0497 32.528C22.3343 33.8399 24.4288 33.9166 25.8067 32.7019L27.9925 30.7753C31.0468 28.0828 35.7116 28.3402 38.4478 31.3519Z" fill="url(#paint0_linear_7686_9195)"/>
<defs>
<linearGradient id="paint0_linear_7686_9195" x1="21" y1="3.12798e-07" x2="29.2564" y2="42.0001" gradientUnits="userSpaceOnUse">
<stop stop-color="#780000"/>
<stop offset="1" stop-color="#C1121F"/>
</linearGradient>
</defs>
</svg>

<svg width="42" height="42" viewBox="0 0 42 42" fill="none" xmlns="http://www.w3.org/2000/svg"><circle cx="21" cy="21" r="21" fill="#fff"/><path fill-rule="evenodd" clip-rule="evenodd" d="M20.945 42a21.025 21.025 0 0015.565-6.858l-1.024-1.128a3.461 3.461 0 00-4.845-.267l-2.186 1.926a7.47 7.47 0 01-10.266-.375l-1.366-1.396a3.461 3.461 0 00-4.833-.105L7.98 37.55A21 21 0 0020.945 42zm17.503-10.648l.497.548A20.861 20.861 0 0042 21c0-4.84-1.641-9.297-4.4-12.848a3.44 3.44 0 00-1.425.755l-2.186 1.927a7.47 7.47 0 01-10.265-.376l-1.367-1.396a3.461 3.461 0 00-4.833-.105l-5.623 5.263-2.736-2.892 5.624-5.262c2.956-2.767 7.597-2.666 10.429.226l1.366 1.396a3.462 3.462 0 004.757.174l2.186-1.927a7.478 7.478 0 011.164-.842A21.006 21.006 0 0020.945 0C10.382 0 1.636 7.757.12 17.872c2.883-1.655 6.625-1.223 9.046 1.25l1.58 1.614a3.461 3.461 0 004.597.307l4.685-3.65a7.472 7.472 0 019.484.252l6.38 5.544-2.627 2.99-6.38-5.544a3.462 3.462 0 00-4.394-.117l-4.686 3.651a7.47 7.47 0 01-9.919-.662l-1.58-1.615a3.461 3.461 0 00-4.833-.105L0 23.167A20.887 20.887 0 005.082 34.81l4.172-3.905c2.956-2.766 7.597-2.666 10.429.227l1.367 1.396a3.461 3.461 0 004.757.174l2.186-1.927c3.054-2.692 7.719-2.435 10.455.577z" fill="url(#paint0_linear_7686_9195)"/><defs><linearGradient id="paint0_linear_7686_9195" x1="21" y1="0" x2="29.256" y2="42" gradientUnits="userSpaceOnUse"><stop stop-color="#780000"/><stop offset="1" stop-color="#C1121F"/></linearGradient></defs></svg>
